X: 1765
T: April Storm
R: jig
M: 6/8
K: Ddorian
|:d2 d2 A/B/c|d2 d2 de|fed cBA|fed cAc|
d2 d2 A/B/c|d2 d2 de|fed cBA|1 GEC D2c:|2 GEC D2C||
|:D2D EDC|DEG A2B|c2c GA/B/c|AcA GEC|
D2D EDC|DEG A2e|fed cBA|1 GEC D2C:|2 GEC D2c||

